X:1762
T:Bonny Kate of Aberdeen
M:4/4
L:1/8
K:D
B2|AFsEDs AFsEDs|sBAsBscs d2 csBs|AFsEDs AFsEDs|sEDsEsFs G2 sGBs|!AFsEDs
 AFsEDs|defd c2 sBAs|BcdB AdcB|AGsFEs D2:|!
f2|ecsBAs ecsBAs|d2 scBs c2 sBAs|BABc d2 g2|fagf e2 sfgs|!
afed ecsBAs|BcdB AFsEDs|defd BdcB|AGsFEs D2:|


